images/dropdown.svg

<svg width="20" height="21" viewBox="0 0 20 21" fill="none" xmlns="http://www.w3.org/2000/svg">
<path d="M10 2.16675C5.4 2.16675 1.66667 5.90008 1.66667 10.5001C1.66667 15.1001 5.4 18.8334 10 18.8334C14.6 18.8334 18.3333 15.1001 18.3333 10.5001C18.3333 5.90008 14.6 2.16675 10 2.16675ZM9.70833 12.7084L7.38333 10.3834C7.11667 10.1167 7.3 9.66675 7.675 9.66675H12.3333C12.7083 9.66675 12.8917 10.1167 12.625 10.3751L10.3 12.7001C10.1333 12.8667 9.86667 12.8667 9.70833 12.7084Z" fill="#2947A9"/>
</svg>

<svg width="20" height="21" fill="none" xmlns="http://www.w3.org/2000/svg"><path d="M10 2.167A8.336 8.336 0 001.667 10.5c0 4.6 3.733 8.333 8.333 8.333s8.333-3.733 8.333-8.333S14.6 2.167 10 2.167zm-.292 10.541l-2.325-2.325a.417.417 0 01.292-.716h4.658c.375 0 .559.45.292.708L10.3 12.7a.42.42 0 01-.592.008z" fill="#2947A9"/></svg>
